X:1
T:Walsh's
R:hornpipe
M:4/4
L:1/8
K:Gmaj
B>A|:(3GAB D>E G>A B2|(3cde A>B c>d e2|\
e>d B>d g>d B>G|(3ABc B>G A>G E2|
(3GAB D>E G>A B2|(3cde A>B c>d e2|\
e>d B>d g>d B>G| (3ABc B>A G2 :|
|:g>d B>d e>d B>d|g>d B>d e>d B>d|\
G>d B>d g>d B>G|(3ABc B>G A>G E>A|
(3GAB D>E G>A B2|(3cde A>B c>d e2|\
e>d B>d g>d B>G| (3ABc B>A G2:|